X:0323
T:Blow Zabella.
M:6/8
L:1/8
N:second repeat and rest added to make things add up
Q:3/8=120
I: :: :: :: :: ::
Z:Jack Campin * www.campin.me.uk * 2009
K:G
     d2c BAG|c2A B2G|d2c BAG|A2D    G3:|
     g2d BGB|cAc BAG|g2d BGB|ADF [1 G3:|\
                                 [2 G2||
G/A/|BAB cBc|d3  d2c|BcB ABA|G3     G2:|
z   |g2G g2G|ABA B2G|g2G g2G|ABA    G2:|
G/A/|BAB cBc|d3  d2c|BcB ABA|G3     G2:|
<end>
<start>
